static/images/components/slider/icons/win.svg

<svg height="108.089" viewBox="0 0 99.833 108.089" width="99.833" xmlns="http://www.w3.org/2000/svg" xmlns:xlink="http://www.w3.org/1999/xlink"><clipPath id="a"><path d="m0 0h99.833v108.089h-99.833z"/></clipPath><g clip-path="url(#a)" fill="#fff"><path d="m57.327 27.9-5.471-6.98 5.467-6.954a1.84 1.84 0 0 0 -1.445-2.977h-11.978v-2.8a2.8 2.8 0 0 0 -2.792-2.8h-19.495a2.591 2.591 0 0 0 -.708.146v-4.454a1.081 1.081 0 0 0 -2.162 0v27.36a1.081 1.081 0 0 0 2.162 0v-4.724a2.714 2.714 0 0 0 .708.143h14v7.016h20.269a1.84 1.84 0 0 0 1.445-2.976m-35.714-6.056a.747.747 0 0 1 -.708-.61v-13.211a.747.747 0 0 1 .708-.61h19.487a.777.777 0 0 1 .776.779v12.483a1.168 1.168 0 0 1 -1.169 1.169h-19.1zm18.178 2.016-2.159 2.94v-2.94zm-1.175 5 4.094-5.571a2.741 2.741 0 0 0 1.19-2.221v-8.068h11.62l-6.221 7.915 6.224 7.941z" transform="translate(42.11)"/><path d="m18.729 26.749a9.464 9.464 0 1 0 -9.464-9.464 9.476 9.476 0 0 0 9.464 9.464m0-16.766a7.3 7.3 0 1 1 -7.3 7.3 7.311 7.311 0 0 1 7.3-7.3" transform="translate(20.816 17.571)"/><path d="m85.038 83.727a130.574 130.574 0 0 0 -22.224-5.5 1 1 0 0 0 .2-.48v-52.73a1.081 1.081 0 0 0 -2.162 0v52.73c0 .078.065.123.081.2-4.386-.623-8.623-1-12.682-1.179a5.454 5.454 0 0 0 1.265-3.468v-40.874l15.162-14.062a4.879 4.879 0 1 0 -6.653-7.14l-14 13.107h-8.96l-14-13.107a4.879 4.879 0 1 0 -6.652 7.14l15.162 14.062v40.874a5.494 5.494 0 0 0 1.565 3.838c-18.44 1.592-30.276 6.524-30.48 6.615a1.083 1.083 0 0 0 .847 1.993c.37-.159 37.376-15.568 82.827.026a1.1 1.1 0 0 0 .351.058 1.081 1.081 0 0 0 .354-2.1m-69.169-66.94a2.738 2.738 0 0 1 1.74-4.74 2.875 2.875 0 0 1 1.99.74l14.62 13.685h10.65l14.623-13.685a2.907 2.907 0 0 1 1.987-.74 2.738 2.738 0 0 1 1.74 4.74l-15.847 14.7v41.81a3.372 3.372 0 0 1 -3.292 3.36h-.181a3.371 3.371 0 0 1 -3.282-3.36v-21.978a1.071 1.071 0 1 0 -2.143 0v21.978a3.378 3.378 0 1 1 -6.756 0v-41.812zm23.675 59.746c.036.052.081.094.12.143-.081 0-.162 0-.243.006.039-.052.084-.1.123-.149" transform="translate(0 22.255)"/></g></svg>

<svg xmlns="http://www.w3.org/2000/svg" xmlns:xlink="http://www.w3.org/1999/xlink" width="99.833" height="108.089" viewBox="0 0 99.833 108.089">
  <defs>
    <clipPath id="clip-path">
      <rect id="Rectangle_1080" data-name="Rectangle 1080" width="99.833" height="108.089" fill="#fff"></rect>
    </clipPath>
  </defs>
  <g id="Group_1813" data-name="Group 1813" clip-path="url(#clip-path)">
    <path id="Path_4198" data-name="Path 4198" d="M57.327,27.9l-5.471-6.98,5.467-6.954a1.84,1.84,0,0,0-1.445-2.977H43.9v-2.8a2.8,2.8,0,0,0-2.792-2.8H21.613a2.591,2.591,0,0,0-.708.146V1.081a1.081,1.081,0,0,0-2.162,0v27.36a1.081,1.081,0,0,0,2.162,0V23.717a2.714,2.714,0,0,0,.708.143h14v7.016H55.882A1.84,1.84,0,0,0,57.327,27.9M21.613,21.844a.747.747,0,0,1-.708-.61V8.023a.747.747,0,0,1,.708-.61H41.1a.777.777,0,0,1,.776.779V20.675a1.168,1.168,0,0,1-1.169,1.169h-19.1ZM39.791,23.86,37.632,26.8V23.86Zm-1.175,5,4.094-5.571A2.741,2.741,0,0,0,43.9,21.068V13h11.62l-6.221,7.915,6.224,7.941Z" transform="translate(42.11 0)" fill="#fff"></path>
    <path id="Path_4199" data-name="Path 4199" d="M18.729,26.749a9.464,9.464,0,1,0-9.464-9.464,9.476,9.476,0,0,0,9.464,9.464m0-16.766a7.3,7.3,0,1,1-7.3,7.3,7.311,7.311,0,0,1,7.3-7.3" transform="translate(20.816 17.571)" fill="#fff"></path>
    <path id="Path_4200" data-name="Path 4200" d="M85.038,83.727a130.574,130.574,0,0,0-22.224-5.5,1,1,0,0,0,.2-.48V25.017a1.081,1.081,0,0,0-2.162,0v52.73c0,.078.065.123.081.2-4.386-.623-8.623-1-12.682-1.179A5.454,5.454,0,0,0,49.516,73.3V32.426L64.678,18.364a4.879,4.879,0,1,0-6.653-7.14l-14,13.107H35.065l-14-13.107a4.879,4.879,0,1,0-6.652,7.14L29.575,32.426V73.3a5.494,5.494,0,0,0,1.565,3.838C12.7,78.73.864,83.662.66,83.753a1.083,1.083,0,0,0,.847,1.993c.37-.159,37.376-15.568,82.827.026a1.1,1.1,0,0,0,.351.058,1.081,1.081,0,0,0,.354-2.1M15.87,16.79a2.738,2.738,0,0,1,1.74-4.74,2.875,2.875,0,0,1,1.99.74l14.62,13.685H44.87L59.493,12.79a2.907,2.907,0,0,1,1.987-.74,2.738,2.738,0,0,1,1.74,4.74l-15.847,14.7V73.3a3.372,3.372,0,0,1-3.292,3.36H43.9a3.371,3.371,0,0,1-3.282-3.36V51.322a1.071,1.071,0,1,0-2.143,0V73.3a3.378,3.378,0,1,1-6.756,0V31.488ZM39.545,76.536c.036.052.081.094.12.143-.081,0-.162,0-.243.006.039-.052.084-.1.123-.149" transform="translate(0 22.255)" fill="#fff"></path>
  </g>
</svg>
